X:1
T: Castles in the Air
C:
R:Strathspey
Q: 128
K:G
M:4/4
L:1/16
|:G3F G3B D4 D2EF|G3F G3A B6B2|c3B c3e d3B A3G|A3B AG3 E4 D2EF|
G3F G3B D4 D2EF|G3F G3A B6B2|c3d eg3 d3B G3A|B3c B3A G4d4|
e4 e3g d4 d3B|c3B c3d B6B2|c3B c3e d3B A3G|A3B AG3 E4 D2EF|
G3F G3B D4 D2EF|G3F G3A B6B2|c3d eg3 d3B G3A|B3c B3A G4D4:|
